X: 1
T: Her Mantle So Green
M: 3/4
L: 1/8
R: waltz
K: Emin
B,D|:E3 F E2|E2 D2 B,2|GF G3 A|B4 GA|B2 e2 de|B2 A2 BA|
G2 E2 DB,|D4 GF|E3 F E2|E2 D2 B,2|GF G3 A|B4 GA|B2 e2 de|B2 A2 BA|
G2 E2 D2|E4 z:|
|:e3 f e2|d2 B3 d|e3 d B2|d4 Bd|e3 d e2|B2 A2 BA|G2 E2 DB,|D4 GF|
E3 F E2|E2 D2 B,2|GF G3 A|B4 GA|B2 e2 de|B2 A2 BA|
G2 E2 D2|E4 z:|
